%%vocalfont Courier
%%gchordfont Georgia
%%textfont Courier
%%wordsfont Courier
%%annotationfont Courier
T: The Humours Of Tulla
R: reel
M: 4/4
L: 1/8
K: Dmaj
Q: 1/2=90
|: d2Ad BdAB | d2fd edBc | d2Ad BdAd | B/c/d ef g2fe :|
w: D         | ___ A     | D         | D ____ G       |
|: af f/e/f df f/e/f | afef g2fg | af f/e/f dfed | B/c/d ef g2fg :|
w: D                 | ____G     | D             | _____ G         |
